X:63
T:Merry Blacksmith
M:C|
R:reel
C:Traditional
K:D
(3(ABc) | d2dA BAFA | ABdA BAFA | ABde (3(fgf) ed | Beed (3(efg) fe |
d2dA BAFA | ABdA BAFA | ABde (3fgf ed | BABc d2 :|
|: fg | a2 ag f2 fe | dedA BAFA | ABde (3(fgf) ed | Beed (3efg fe |
abag fgfe | dedA BAFA |  ABde (3fgf ed | BABc d2 :|

